seeds/icons/airport.svg

<?xml version="1.0" encoding="utf-8"?><!-- Uploaded to: SVG Repo, www.svgrepo.com, Generator: SVG Repo Mixer Tools -->
<svg fill="var(--p-text-color)" width="1.5rem" height="1.5rem" viewBox="0 0 50 50" xmlns="http://www.w3.org/2000/svg" xmlns:xlink="http://www.w3.org/1999/xlink"><path d="M17 2C16.625 2 16.282328 2.2099688 16.111328 2.5429688C15.940328 2.8769687 15.9695 3.2750781 16.1875 3.5800781L19.345703 8L13.617188 8L11.894531 4.5527344C11.724531 4.2137344 11.379 4 11 4L9 4C8.448 4 8 4.447 8 5L8 11C8 14.303 13.598219 15.488141 18.949219 15.869141L15.171875 21.439453C14.963875 21.745453 14.942234 22.14175 15.115234 22.46875C15.289234 22.79575 15.63 23 16 23L20.375 23C20.629 23 20.873594 22.902516 21.058594 22.728516L28.238281 16L39 16C39.155 16 39.309266 15.964531 39.447266 15.894531C39.571266 15.833531 40.661375 15.254203 40.859375 14.033203C41.007375 13.126203 40.619031 12.204969 39.707031 11.292969C37.674031 9.2599688 35.509 8 31 8L29.123047 8L22.005859 2.2246094C21.827859 2.0796094 21.604 2 21.375 2L17 2 z M 18.943359 4L21.021484 4L25.949219 8L21.802734 8L18.943359 4 z M 10 6L10.382812 6L12.105469 9.4472656C12.275469 9.7862656 12.621 10 13 10L31 10C34.855 10 36.536969 10.951031 38.292969 12.707031C38.890969 13.306031 38.899719 13.624984 38.886719 13.708984C38.871719 13.819984 38.779313 13.926 38.695312 14L27.84375 14C27.58975 14 27.345156 14.097484 27.160156 14.271484L19.980469 21L17.886719 21L21.597656 15.53125C21.800656 15.23025 21.825109 14.843531 21.662109 14.519531C21.498109 14.195531 21.173547 13.985703 20.810547 13.970703C13.712547 13.677703 10 12.254 10 11L10 6 z M 9.0820312 25C7.3820312 25 6 26.382031 6 28.082031L6 42.917969C6 44.617969 7.3820312 46 9.0820312 46L11.275391 46C11.896577 47.742275 13.547301 49 15.5 49C17.452699 49 19.103423 47.742275 19.724609 46L30.275391 46C30.896577 47.742275 32.547301 49 34.5 49C36.452699 49 38.103423 47.742275 38.724609 46L41.917969 46C43.617969 46 45 44.617969 45 42.917969L45 37.427734C45 36.724734 44.786813 36.047703 44.382812 35.470703L38.792969 27.474609C37.725969 26.086609 35.583016 25 33.916016 25L9.0820312 25 z M 9.0820312 27L33.917969 27C34.958969 27 36.526641 27.80725 37.181641 28.65625L37.443359 29.03125L33.75 29.03125C33.197 29.03125 32.75 29.47825 32.75 30.03125L32.75 36.03125C32.75 36.58425 33.197 37.03125 33.75 37.03125L42.75 37.03125C42.81465 37.03125 42.870433 37.005815 42.931641 36.994141C42.976252 37.132889 43 37.279277 43 37.427734L43 42.917969C43 43.514969 42.514969 44 41.917969 44L38.949219 44C38.69683 41.756334 36.809892 40 34.5 40C32.190108 40 30.30317 41.756334 30.050781 44L19.949219 44C19.69683 41.756334 17.809892 40 15.5 40C13.190108 40 11.30317 41.756334 11.050781 44L9.0820312 44C8.4850312 44 8 43.514969 8 42.917969L8 28.082031C8 27.485031 8.4850313 27 9.0820312 27 z M 34.75 31.03125L38.841797 31.03125L41.636719 35.03125L34.75 35.03125L34.75 31.03125 z M 15.5 42C16.878 42 18 43.121 18 44.5C18 44.562838 17.985046 44.621908 17.980469 44.683594C17.946301 44.784426 17.917969 44.88753 17.917969 45C17.917969 45.022307 17.930205 45.04056 17.931641 45.0625C17.67525 46.170661 16.684295 47 15.5 47C14.122 47 13 45.879 13 44.5C13 43.121 14.122 42 15.5 42 z M 34.5 42C35.879 42 37 43.121 37 44.5C37 44.562838 36.985043 44.621908 36.980469 44.683594C36.946358 44.784426 36.917969 44.88753 36.917969 45C36.917969 45.022307 36.930208 45.04056 36.931641 45.0625C36.675441 46.170661 35.685155 47 34.5 47C33.121 47 32 45.879 32 44.5C32 43.121 33.121 42 34.5 42 z"/></svg>

<svg xmlns="http://www.w3.org/2000/svg" width="1.5rem" height="1.5rem" fill="var(--p-text-color)" viewBox="0 0 50 50"><path d="M17 2a.999.999 0 0 0-.812 1.58L19.346 8h-5.729l-1.722-3.447A1 1 0 0 0 11 4H9a1 1 0 0 0-1 1v6c0 3.303 5.598 4.488 10.95 4.87l-3.778 5.57A1 1 0 0 0 16 23h4.375a1 1 0 0 0 .684-.271L28.239 16H39a1 1 0 0 0 .447-.105c.124-.061 1.214-.64 1.412-1.862.148-.907-.24-1.828-1.152-2.74C37.674 9.26 35.509 8 31 8h-1.877l-7.117-5.775A1 1 0 0 0 21.375 2zm1.943 2h2.078l4.928 4h-4.146zM10 6h.383l1.722 3.447A1 1 0 0 0 13 10h18c3.855 0 5.537.951 7.293 2.707.598.599.607.918.594 1.002-.015.111-.108.217-.192.291H27.844a1 1 0 0 0-.684.271L19.98 21h-2.093l3.71-5.469a1.003 1.003 0 0 0-.786-1.56C13.713 13.678 10 12.254 10 11zm-.918 19A3.085 3.085 0 0 0 6 28.082v14.836C6 44.618 7.382 46 9.082 46h2.193c.622 1.742 2.272 3 4.225 3s3.603-1.258 4.225-3h10.55c.622 1.742 2.272 3 4.225 3s3.603-1.258 4.225-3h3.193c1.7 0 3.082-1.382 3.082-3.082v-5.49c0-.703-.213-1.38-.617-1.957l-5.59-7.996C37.726 26.087 35.583 25 33.916 25zm0 2h24.836c1.041 0 2.609.807 3.264 1.656l.261.375H33.75a1 1 0 0 0-1 1v6a1 1 0 0 0 1 1h9c.065 0 .12-.025.182-.037q.067.21.068.434v5.49c0 .597-.485 1.082-1.082 1.082h-2.969c-.252-2.244-2.14-4-4.449-4-2.31 0-4.197 1.756-4.45 4h-10.1c-.253-2.244-2.14-4-4.45-4s-4.197 1.756-4.45 4H9.083A1.083 1.083 0 0 1 8 42.918V28.082C8 27.485 8.485 27 9.082 27m25.668 4.031h4.092l2.795 4H34.75zM15.5 42c1.378 0 2.5 1.121 2.5 2.5 0 .063-.015.122-.02.184a1 1 0 0 0-.062.316c0 .022.012.04.014.063A2.5 2.5 0 0 1 15.5 47a2.503 2.503 0 0 1-2.5-2.5c0-1.379 1.122-2.5 2.5-2.5m19 0c1.379 0 2.5 1.121 2.5 2.5 0 .063-.015.122-.02.184a1 1 0 0 0-.062.316c0 .022.012.04.014.063A2.5 2.5 0 0 1 34.5 47a2.5 2.5 0 0 1-2.5-2.5c0-1.379 1.121-2.5 2.5-2.5"/></svg>
